svgs/sharp-solid/hand-horns.svg

<svg xmlns="http://www.w3.org/2000/svg" viewBox="0 0 384 512"><!--! Font Awesome Pro 6.6.0 by @fontawesome - https://fontawesome.com License - https://fontawesome.com/license (Commercial License) Copyright 2024 Fonticons, Inc. --><path d="M32 0L96 0l0 240-64 0L32 0zM224 160l64 0 0 128-64 0 0-128zm-32-32l0 112-64 0 0-112 64 0zM320 64l64 0 0 128 0 128 0 32c0 88.4-71.6 160-160 160l-61.7 0c-42.4 0-83.1-16.9-113.1-46.9L37.5 453.5C13.5 429.5 0 396.9 0 363l0-91 184 0 8 0 0 48 0 32-96 0-16 0 0 32 16 0 112 0 16 0 0-16 0-48 96 0 0-128 0-128z"/></svg>

<svg xmlns="http://www.w3.org/2000/svg" viewBox="0 0 384 512"><!--! Font Awesome Pro 6.4.0 by @fontawesome - https://fontawesome.com License - https://fontawesome.com/license (Commercial License) Copyright 2023 Fonticons, Inc. --><path d="M32 0H96V240H32V0zM224 160h64V288H224V160zm-32-32V240H128V128h64zM320 64h64V192 320v32c0 88.4-71.6 160-160 160H162.3c-42.4 0-83.1-16.9-113.1-46.9L37.5 453.5C13.5 429.5 0 396.9 0 363V272H184h8v48 32H96 80v32H96 208h16V368 320h96V192 64z"/></svg>
